// network boradcasting

unixCmd("ifconfig | grep broadcast | awk '{print $NF}'")
NetAddr.broadcastFlag = true;
NetAddr.langPort

// array methofs
.reject
.removeAllSuchThat{ |x| x.even }
.diferentiate

// number methods
.midiratio
.ring2

(1 / 4).asFraction
1e12 // (exp)
1.3e4
2r001
2r011
200.asBinaryDigits
215.asDigits(3)
0.5pi

1b
1s

// classes
Scale
Tuning
Pdefn
